Yosa-Max-Dark/apps/symbolic/preferences-desktop-display-symbolic.svg

<?xml version="1.0" encoding="UTF-8"?>
<svg id="svg4" version="1.1" viewBox="0 0 24 24" xmlns="http://www.w3.org/2000/svg">
 <path id="rect820" d="m4.8671878 4.7851561c-1.033984 0-1.867188 0.8312509-1.867188 1.8652344v7.3925785c0 1.033983 0.833204 1.865234 1.867188 1.865234h5.9628902v1.882813h-2.0332032v1.423828h6.4062502v-1.423828h-2.033203v-1.882813h5.964844c1.033983 0 1.865234-0.831251 1.865234-1.865234v-7.3925785c0-1.0339835-0.831251-1.8652344-1.865234-1.8652344zm-0.230469 1.4707031h14.726562v8.1816408h-14.726562z" style="fill:#b3b3b3;paint-order:stroke fill markers"/>
</svg>

<?xml version="1.0" encoding="UTF-8" standalone="no"?>
<svg
   xmlns:dc="http://purl.org/dc/elements/1.1/"
   xmlns:cc="http://creativecommons.org/ns#"
   xmlns:rdf="http://www.w3.org/1999/02/22-rdf-syntax-ns#"
   xmlns:svg="http://www.w3.org/2000/svg"
   xmlns="http://www.w3.org/2000/svg"
   xmlns:sodipodi="http://sodipodi.sourceforge.net/DTD/sodipodi-0.dtd"
   xmlns:inkscape="http://www.inkscape.org/namespaces/inkscape"
   height="24"
   viewBox="0 0 24 24"
   width="24"
   version="1.1"
   id="svg4"
   sodipodi:docname="preferences-desktop-display-symbolic.svg"
   inkscape:version="0.92.2 2405546, 2018-03-11">
  <metadata
     id="metadata10">
    <rdf:RDF>
      <cc:Work
         rdf:about="">
        <dc:format>image/svg+xml</dc:format>
        <dc:type
           rdf:resource="http://purl.org/dc/dcmitype/StillImage" />
      </cc:Work>
    </rdf:RDF>
  </metadata>
  <defs
     id="defs8" />
  <sodipodi:namedview
     pagecolor="#ffffff"
     bordercolor="#666666"
     borderopacity="1"
     objecttolerance="10"
     gridtolerance="10"
     guidetolerance="10"
     inkscape:pageopacity="0"
     inkscape:pageshadow="2"
     inkscape:window-width="1366"
     inkscape:window-height="695"
     id="namedview6"
     showgrid="false"
     inkscape:zoom="19.666667"
     inkscape:cx="0.67138825"
     inkscape:cy="9.4962433"
     inkscape:window-x="0"
     inkscape:window-y="0"
     inkscape:window-maximized="1"
     inkscape:current-layer="svg4" />
  <path
     style="opacity:1;vector-effect:none;fill:#dfdfdf;fill-opacity:1;stroke:none;stroke-width:0.81818199;stroke-linecap:butt;stroke-linejoin:miter;stroke-miterlimit:4;stroke-dasharray:none;stroke-dashoffset:0;stroke-opacity:1;paint-order:stroke fill markers"
     d="m 4.8671878,4.7851561 c -1.033984,0 -1.867188,0.8312509 -1.867188,1.8652344 v 7.3925785 c 0,1.033983 0.833204,1.865234 1.867188,1.865234 h 5.9628902 v 1.882813 H 8.7968748 v 1.423828 h 6.4062502 v -1.423828 h -2.033203 v -1.882813 h 5.964844 C 20.168749,15.908203 21,15.076952 21,14.042969 V 6.6503905 C 21,5.616407 20.168749,4.7851561 19.134766,4.7851561 Z M 4.6367188,6.2558592 H 19.363281 V 14.4375 H 4.6367188 Z"
     id="rect820"
     inkscape:connector-curvature="0" />
</svg>
